SVG-Icons/Technical/Grafana/grafana-oss-icon-contributors.svg

<svg width="43" height="43" viewBox="0 0 43 43" fill="none" xmlns="http://www.w3.org/2000/svg">
<path fill-rule="evenodd" clip-rule="evenodd" d="M36.6758 15.7441C36.6758 16.7106 35.8923 17.4941 34.9258 17.4941H27.9258L22.6758 22.7441V17.4941H10.4258C9.45928 17.4941 8.67578 16.7106 8.67578 15.7441V3.49414C8.67578 2.52764 9.45928 1.74414 10.4258 1.74414H34.9258C35.8923 1.74414 36.6758 2.52764 36.6758 3.49414V15.7441Z" stroke="#EF5B3E" stroke-width="2" stroke-linecap="round" stroke-linejoin="round"/>
<path fill-rule="evenodd" clip-rule="evenodd" d="M9.3418 34.1191C11.9997 34.1191 14.1543 31.9645 14.1543 29.3066C14.1543 26.6488 11.9997 24.4941 9.3418 24.4941C6.68393 24.4941 4.5293 26.6488 4.5293 29.3066C4.5293 31.9645 6.68393 34.1191 9.3418 34.1191Z" stroke="#EF5B3E" stroke-width="2" stroke-linecap="round" stroke-linejoin="round"/>
<path d="M17.004 41.9942C16.1944 38.4125 13.012 35.8691 9.33991 35.8691C5.66783 35.8691 2.48543 38.4125 1.67578 41.9942" stroke="#EF5B3E" stroke-width="2" stroke-linecap="round" stroke-linejoin="round"/>
<path fill-rule="evenodd" clip-rule="evenodd" d="M34.2598 34.1191C36.9176 34.1191 39.0723 31.9645 39.0723 29.3066C39.0723 26.6488 36.9176 24.4941 34.2598 24.4941C31.6019 24.4941 29.4473 26.6488 29.4473 29.3066C29.4473 31.9645 31.6019 34.1191 34.2598 34.1191Z" stroke="#EF5B3E" stroke-width="2" stroke-linecap="round" stroke-linejoin="round"/>
<path d="M41.924 41.9942C41.1143 38.4125 37.9319 35.8691 34.2598 35.8691C30.5878 35.8691 27.4054 38.4125 26.5957 41.9942" stroke="#EF5B3E" stroke-width="2" stroke-linecap="round" stroke-linejoin="round"/>
<path d="M27.0508 6.11914L30.5508 9.61914L27.0508 13.1191" stroke="#EF5B3E" stroke-width="2" stroke-linecap="round" stroke-linejoin="round"/>
<path d="M18.3008 6.11914L14.8008 9.61914L18.3008 13.1191" stroke="#EF5B3E" stroke-width="2" stroke-linecap="round" stroke-linejoin="round"/>
<path d="M24.4258 6.11914L20.9258 13.1191" stroke="#EF5B3E" stroke-width="2" stroke-linecap="round" stroke-linejoin="round"/>
</svg>

<svg xmlns="http://www.w3.org/2000/svg" fill="none" viewBox="0 0 43 43"><path stroke="#EF5B3E" stroke-linecap="round" stroke-linejoin="round" stroke-width="2" d="M36.676 15.744a1.75 1.75 0 0 1-1.75 1.75h-7l-5.25 5.25v-5.25h-12.25a1.75 1.75 0 0 1-1.75-1.75V3.494c0-.966.783-1.75 1.75-1.75h24.5c.966 0 1.75.784 1.75 1.75v12.25ZM9.342 34.12a4.812 4.812 0 1 0 0-9.626 4.812 4.812 0 0 0 0 9.625Z" clip-rule="evenodd"/><path stroke="#EF5B3E" stroke-linecap="round" stroke-linejoin="round" stroke-width="2" d="M17.004 41.994a7.857 7.857 0 0 0-15.328 0"/><path stroke="#EF5B3E" stroke-linecap="round" stroke-linejoin="round" stroke-width="2" d="M34.26 34.12a4.813 4.813 0 1 0 0-9.626 4.813 4.813 0 0 0 0 9.625Z" clip-rule="evenodd"/><path stroke="#EF5B3E" stroke-linecap="round" stroke-linejoin="round" stroke-width="2" d="M41.924 41.994a7.858 7.858 0 0 0-15.328 0M27.05 6.12l3.5 3.5-3.5 3.5M18.3 6.12l-3.5 3.5 3.5 3.5M24.426 6.12l-3.5 7"/></svg>
